**kern	**text	**kern	**text	**kern	**text	**kern	**text	**kern	**text
*staff5	*staff5	*staff4	*staff4	*staff3	*staff3	*staff2	*staff2	*staff1	*staff1
=1-	=1-	=1-	=1-	=1-	=1-	=1-	=1-	=1-	=1-
*clefF4	*	*clefGv2	*	*clefGv2	*	*clefG2	*	*clefG2	*
*k[b-]	*	*k[b-]	*	*k[b-]	*	*k[b-]	*	*k[b-]	*
*M4/4	*	*M4/4	*	*M4/4	*	*M4/4	*	*M4/4	*
1r	.	1r	.	4r	.	1r	.	2dd\	Sei
.	.	.	.	4d\	Sei	.	.	.	.
.	.	.	.	4g\	tu	.	.	4b-\	tu
.	.	.	.	4a\	quel	.	.	4cc\	quel
=2	=2	=2	=2	=2	=2	=2	=2	=2	=2
1r	.	1r	.	2b-\	lau-	4r	.	2dd\	lau-
.	.	.	.	.	.	2b-\	che-	.	.
.	.	.	.	2f\	ro	.	.	2cc\	ro
.	.	.	.	.	.	4a/	s&igrave;	.	.
=3	=3	=3	=3	=3	=3	=3	=3	=3	=3
4r	.	4r	.	2r	.	4g/	ver-	4b-\	che
4D\	Sei	4d\	Sei	.	.	4f#/	dea-	4a/	s&igrave;
4G\	tu	4B-\	tu	4d\	che	4g/	mo-	4b-\	ver-
4A\	quel	4c\	quel	4c\	s&igrave;	4e/	re,	[4a/	dea-
=4	=4	=4	=4	=4	=4	=4	=4	=4	=4
2B-\	lau-	2d\	lau-	8B-\L	ver-	1r	.	8a/L]	.
.	.	.	.	8c\J	.	.	.	16g/L	.
.	.	.	.	.	.	.	.	16f/JJ	.
.	.	.	.	8d\L	.	.	.	4g/	.
.	.	.	.	8e\J	.	.	.	.	.
2F\	ro	2c\	ro	4f\	.	.	.	4a/	mo-
.	.	.	.	4f\	dea-	.	.	4a/	re,
=5	=5	=5	=5	=5	=5	=5	=5	=5	=5
4G\	che	4B-\	che	2d\	mo-	4g/	che	4dd\	che
4D\	s&igrave;	4A/	s&igrave;	.	.	4f#/	si	4dd\	s&igrave;
4G\	ver-	4B-\	ver-	2d\	re	4g/	ver-	4dd\	ver-
4G\	dea-	4d\	dea-	.	.	4g/	dea-	4b-\	dea-
=6	=6	=6	=6	=6	=6	=6	=6	=6	=6
2A\	mo-	2c#\	mo-	1r	.	2e/	mo-	2a/	mo-
2A\	re	2c#\	re	.	.	2e/	re	2a/	re
=7	=7	=7	=7	=7	=7	=7	=7	=7	=7
1r	.	4d\	mi	4f#\	mi	4a/	mi	1r	.
.	.	4g\	di-	4g\	di-	4b-\	di-	.	.
.	.	2f\	pin-	2a\	pin-	2cc\	pin-	.	.
=8	=8	=8	=8	=8	=8	=8	=8	=8	=8
1r	.	4f\	se	4a\	se	4cc\	se	4r	.
.	.	4g\	nel	4g\	nel	4b-\	nel	4dd\	nel
.	.	2d\	co-	2f#\	co-	2a/	co-	2dd\	co-
=9	=9	=9	=9	=9	=9	=9	=9	=9	=9
2r	.	2G/	re,	2g\	re,	2b-\	re,	2dd\	re,
4G\	e	4d\	e	2r	.	4g/	e	4b-\	e
4F\	pur	4f\	pur	.	.	4a/	pur	4cc\	pur
=10	=10	=10	=10	=10	=10	=10	=10	=10	=10
2B-\	seg-	2f\	seg-	1r	.	2b-\	seg-	2dd\	seg-
4E-\	no	4g\	no	.	.	4b-\	no	4ee-\	no
4G\	che	4d\	che	.	.	4g/	che	4b-\	che
=11	=11	=11	=11	=11	=11	=11	=11	=11	=11
2F\	fos-	2f\	fos-	1r	.	2a/	fos-	2cc\	fos-
2F\	ti	2f\	ti	.	.	2a/	ti	2cc\	ti
=12	=12	=12	=12	=12	=12	=12	=12	=12	=12
4BB-/	per	4d\	per	4f\	per	4b-\	per	4dd\	per
4C/	me	4c\	me	4e\	me	4g/	me	4ee\	me
2D\	sec-	2A/	sec-	2d\	sec-	2f/	sec-	2ff\	sec-
=13	=13	=13	=13	=13	=13	=13	=13	=13	=13
4C/	co,	4c\	co,	4e\	co,	4g/	co	4ee\	co,
4D\	se	4A/	se	4a\	se	4f/	se	4dd\	se
4D\	sei	4A/	sei	4a\	sei	4f/	sei-	4dd\	sei
4D\	per	4A/	per	4a\	per	4f/	per	4dd\	per
=14	=14	=14	=14	=14	=14	=14	=14	=14	=14
4G\	al-	4B-\	al-	2.g\	al-	4e-/	al-	4b-\	al-
4G\	triar-	4B-\	triar-	.	.	4d/	triar-	4g/	triar-
2E-\	den-	2G/	den-	.	.	2c/	den-	2gg\	den-
.	.	.	.	4c\	triar-	.	.	.	.
=15	=15	=15	=15	=15	=15	=15	=15	=15	=15
1D\	te	4A/	te	2.f\	den-	4d/	te	4ff\	te
.	.	4d\	di	.	.	4a/	di	4dd\	di
.	.	4d\	fo-	.	.	4a/	fo-	4dd\	fo-
.	.	4d\	co	4d\	te	4a/	co	4ff\	co
=16	=16	=16	=16	=16	=16	=16	=16	=16	=16
1r	.	4g\	s&igrave;	2r	.	4b-\	s&igrave;	4ee-\	s&igrave;
.	.	4g\	re-	.	.	4b-\	re-	4dd\	re-
.	.	2e-\	pen-	4r	.	2g/	pen-	2cc\	pen-
.	.	.	.	[4g\	Ma	.	.	.	.
=17	=17	=17	=17	=17	=17	=17	=17	=17	=17
1r	.	2d\	te.	4g\]	.	4a/	te.	2dd\	te.
.	.	.	.	2f\	tu	2dd\	Ma	.	.
.	.	4r	.	.	.	.	.	2r	.
.	.	[4g\	Ma	4e\	mi	[4cc\	tu	.	.
=18	=18	=18	=18	=18	=18	=18	=18	=18	=18
1r	.	4g\]	.	2d\	tien	4cc\]	.	2r	.
.	.	2f\	tu	.	.	4b-\	mi	.	.
.	.	.	.	2c\	nas-	4a/	tie-	4r	.
.	.	4e\	mi	.	.	4g/	ni,	[4gg\	Ma
=19	=19	=19	=19	=19	=19	=19	=19	=19	=19
1r	.	8d\L	tien	2B-\	cos-	4r	.	4gg\]	.
.	.	8e\J	.	.	.	.	.	.	.
.	.	8f\L	.	.	.	2dd\	ma	2ff\	tu
.	.	8g\J	.	.	.	.	.	.	.
.	.	4a\	.	2A/	ti	.	.	.	.
.	.	4A/	nas-	.	.	[4cc\	tu-	4ee\	mi
=20	=20	=20	=20	=20	=20	=20	=20	=20	=20
1r	.	8B-\L	cos-	4r	.	4cc\]	.	2.dd\	tien
.	.	8c\J	.	.	.	.	.	.	.
.	.	8d\L	.	[4B-\	glia-	4b-\	mi	.	.
.	.	8e\J	.	.	.	.	.	.	.
.	.	2f\	.	8B-\L]	.	4b-\	tien	.	.
.	.	.	.	8B-\J	ri-	.	.	.	.
.	.	.	.	4F/	di	4a/	nas-	4cc\	nas-
=21	=21	=21	=21	=21	=21	=21	=21	=21	=21
1r	.	2d\	ti	2G/	ra-	2g/	cos-	2b-\	cos-
.	.	4r	.	4d\	mi,	4f/	ti	4a/	ti
.	.	[4B-\	glia-	[4f\	glia-	[4d/	glia-	[4b-\	glia-
=22	=22	=22	=22	=22	=22	=22	=22	=22	=22
1r	.	8B-\L]	.	8f\L]	.	8d/L]	.	8b-\L]	.
.	.	8B-\J	ri-	8f\J	ri-	8d/J	ri-	8b-\J	ri-
.	.	4F/	di	4f\	di	4c/	di	4a/	di
.	.	2G/	ra-	2d\	ra-	8B-/L	ra-	2dd\	ra-
.	.	.	.	.	.	8G/J	.	.	.
.	.	.	.	.	.	4g/	.	.	.
=23	=23	=23	=23	=23	=23	=23	=23	=23	=23
2r	.	2d\	mi	1d\	mi	4.f/	mi	1dd\	mi
.	.	.	.	.	.	8g/	.	.	.
[2d\	ahi	4r	.	.	.	4a/	.	.	.
.	.	[4f\	ahi	.	.	[4b-\	ahi	.	.
=24	=24	=24	=24	=24	=24	=24	=24	=24	=24
4d\]	.	4f\]	.	1r	.	4b-\]	.	1r	.
2c\	fal-	2e\	fal-	.	.	2a/	fal-	.	.
4B-\	soe'n	4d\	soe'n	.	.	4g/	soe'n	.	.
=25	=25	=25	=25	=25	=25	=25	=25	=25	=25
4c\	ver-	4e\	ver-	1r	.	4a/	ver-	2r	.
4A\	de	4c\	de	.	.	4f/	de	.	.
2B-\	lo-	2d\	lo-	.	.	2g/	lo-	4r	.
.	.	.	.	.	.	.	.	[4dd\	ahi-
=26	=26	=26	=26	=26	=26	=26	=26	=26	=26
2A\	co	2e\	co	4r	.	2a/	co	4dd\]	.
.	.	.	.	2a\	ahi	.	.	2cc\	fal-
2r	.	2r	.	.	.	2r	.	.	.
.	.	.	.	[4g\	fal-	.	.	4b-\	soe'n
=27	=27	=27	=27	=27	=27	=27	=27	=27	=27
1r	.	1r	.	4g\]	.	1r	.	4cc\	ver-
.	.	.	.	4f\	soe'n	.	.	4a/	de
.	.	.	.	4g\	ver-	.	.	2b-\	lo-
.	.	.	.	4d\	de	.	.	.	.
=28	=28	=28	=28	=28	=28	=28	=28	=28	=28
1r	.	1r	.	2f\	lo-	4d/	mos-	2a/	co
.	.	.	.	.	.	8d/L	tri	.	.
.	.	.	.	.	.	8e/J	le	.	.
.	.	.	.	2d\	co	4f/	fo-	4a/	mos-
.	.	.	.	.	.	4d/	glieun	8a/L	tri
.	.	.	.	.	.	.	.	8b-/J	le
=29	=29	=29	=29	=29	=29	=29	=29	=29	=29
1r	.	1r	.	1r	.	8e/L	po-	4cc\	fo-
.	.	.	.	.	.	8f/J	.	.	.
.	.	.	.	.	.	2g/	.	4b-\	glieun
.	.	.	.	.	.	.	.	2a/	po-
.	.	.	.	.	.	4f/	.	.	.
=30	=30	=30	=30	=30	=30	=30	=30	=30	=30
2r	.	2r	.	2r	.	2g/	co.	2g/	co.
2G\	Non	2g\	Non	2d\	Non	2dd\	Non	2b-\	Non
=31	=31	=31	=31	=31	=31	=31	=31	=31	=31
2A\	son	4e\	son	2a\	son	2cc\	son	2cc\	son
.	.	[4f\	cre-	.	.	.	.	.	.
[2B-\	cre-	8f\L]	.	[2f\	cre-	[2b-\	cre-	[2dd\	cre-
.	.	8f\J	du-	.	.	.	.	.	.
.	.	4d\	lo	.	.	.	.	.	.
=32	=32	=32	=32	=32	=32	=32	=32	=32	=32
4B-\]	.	1d\	non,	4f\]	.	4b-\]	.	4dd\]	.
4B-\	du-	.	.	4f\	du-	4b-\	du-	4dd\	du-
2G\	lo	.	.	2g\	lo	2dd\	lo	2b-\	lo
=33	=33	=33	=33	=33	=33	=33	=33	=33	=33
2d\	non,	2r	.	1a\	non,	2dd\	non,	1ff\	non,
2d\	n&eacute;	2f\	n&eacute;	.	.	2a/	n&eacute;	.	.
=34	=34	=34	=34	=34	=34	=34	=34	=34	=34
2c\	cie-	2e\	cie-	1r	.	2a/	cie-	2r	.
2B-\	coin	2d\	coin	.	.	2g/	coin	4r	.
.	.	.	.	.	.	.	.	4dd\	d&agrave;
=35	=35	=35	=35	=35	=35	=35	=35	=35	=35
1A\	tut-	1e\	tut-	2r	.	1a/	tut-	4cc\	pur
.	.	.	.	.	.	.	.	4a/	le
.	.	.	.	4r	.	.	.	2cc\	fras-
.	.	.	.	4cc\	d&agrave;	.	.	.	.
=36	=36	=36	=36	=36	=36	=36	=36	=36	=36
2G\	to,	2g\	to:	4b-\	pur	2d/	to:	4dd\	che,
.	.	.	.	4g\	le	.	.	4gg\	d&agrave;
2r	.	4r	.	4b-\	fras-	2r	.	4ff\	pur
.	.	4g\	d&agrave;	4b-\	chea	.	.	4dd\	le
=37	=37	=37	=37	=37	=37	=37	=37	=37	=37
1r	.	4f\	pur	2a\	chi	2r	.	2.ff\	fras-
.	.	4d\	le	.	.	.	.	.	.
.	.	4f\	fras-	2a\	ne	2cc\	a	.	.
.	.	4f\	chea	.	.	.	.	4ff\	chea
=38	=38	=38	=38	=38	=38	=38	=38	=38	=38
1r	.	2.c\	chi	2.g\	spe-	2.cc\	chi	2.ee\	chi
.	.	4d\	ne	4f\	.	4a/	ne	4dd\	ne
=39	=39	=39	=39	=39	=39	=39	=39	=39	=39
1r	.	4A/	spe-	4e\	.	4a/	spe-	4cc#\	spe-
.	.	4B-\	rail	4d\	rail	4g/	rail	2dd\	rail
.	.	2A/	frut-	2e\	frut-	2a/	frut-	.	.
.	.	.	.	.	.	.	.	4cc#\	frut-
=40	=40	=40	=40	=40	=40	=40	=40	=40	=40
2r	.	2d\	to.	2f#\	to.	2a/	to.	2dd\	to.
2G\	Non	2g\	Non	4r	.	2dd\	Non	2b-\	Non
.	.	.	.	4d\	Non	.	.	.	.
=41	=41	=41	=41	=41	=41	=41	=41	=41	=41
2A\	son	4e\	son	2a\	son	2cc\	son	2cc\	son
.	.	[4f\	cre-	.	.	.	.	.	.
[2B-\	cre-	8f\L]	.	[2f\	cre-	[2b-\	cre-	[2dd\	cre-
.	.	8f\J	du-	.	.	.	.	.	.
.	.	4d\	lo	.	.	.	.	.	.
=42	=42	=42	=42	=42	=42	=42	=42	=42	=42
4B-\]	.	1d\	non,	4f\]	.	4b-\]	.	4dd\]	.
4B-\	du-	.	.	4f\	du-	4b-\	du-	4dd\	du-
2G\	lo	.	.	2g\	lo	2dd\	lo	2b-\	lo
=43	=43	=43	=43	=43	=43	=43	=43	=43	=43
2d\	non,	2r	.	2a\	non,	2dd\	non,	1ff\	non,
2d\	n&eacute;	2f\	n&eacute;	4r	.	2a/	n&eacute;	.	.
.	.	.	.	4d\	n&eacute;	.	.	.	.
=44	=44	=44	=44	=44	=44	=44	=44	=44	=44
2c\	cie-	2e\	cie-	2A/	cie-	4a/	cie-	1r	.
.	.	.	.	.	.	4a/	coin-	.	.
2B-\	coin	2d\	coin	2d\	coin	2g/	tut-	.	.
=45	=45	=45	=45	=45	=45	=45	=45	=45	=45
2A\	tut-	2e\	tut-	4.c\	tut-	4a/	to:	1r	.
.	.	.	.	.	.	4cc\	d&agrave;	.	.
.	.	.	.	8d\	.	.	.	.	.
4G\	to:	4g\	to:	2e-\	.	4b-\	pur	.	.
4c\	d&agrave;	4c\	d&agrave;	.	.	4g/	le	.	.
=46	=46	=46	=46	=46	=46	=46	=46	=46	=46
4B-\	pur	4d\	pur	4d\	to:	2.b-\	fras-	2r	.
4G\	le	4e-\	le	4g\	d&agrave;	.	.	.	.
4B-\	fras-	4d\	fras-	4f\	pur	.	.	4r	.
4B-\	chea	4B-\	chea	4d\	le	4b-\	chea	4ff\	a
=47	=47	=47	=47	=47	=47	=47	=47	=47	=47
2.F\	chi	2.c\	chi	4f\	fras-	2.a/	chi	2.ff\	chi
.	.	.	.	4F/	chea	.	.	.	.
.	.	.	.	4A/	chi	.	.	.	.
4G\	ne	4B-\	ne	4B-\	ne	4g/	ne	4dd\	ne
=48	=48	=48	=48	=48	=48	=48	=48	=48	=48
2D\	spe-	2A/	spe-	2.d\	spe-	2f#/	spe-	4.dd\	spe-
.	.	.	.	.	.	.	.	8cc\	.
2E-\	rail	2G/	rail	.	.	[2g/	rail	4b-\	.
.	.	.	.	4c\	rail	.	.	4g/	rail
=49	=49	=49	=49	=49	=49	=49	=49	=49	=49
1D\	frut-	1A/	frut-	1d\	frut-	2g/]	.	1dd\	frut-
.	.	.	.	.	.	2f#/	frut-	.	.
=50	=50	=50	=50	=50	=50	=50	=50	=50	=50
1G\	to.	1G/	to.	1d\	to.	1g/	to.	1bn\	to.
==	==	==	==	==	==	==	==	==	==
*-	*-	*-	*-	*-	*-	*-	*-	*-	*-
